22x22/apps/uget-icon.svg

<svg xmlns="http://www.w3.org/2000/svg" width="22" height="22" version="1"><rect style="opacity:.2" width="20" height="20" x="1" y="1.5" rx="1" ry="1"/><rect style="fill:#72a637" width="20" height="20" x="1" y="1" rx="1" ry="1"/><path style="opacity:.2" d="M19 10.5h-4v2h2l-4 5-4-5h2v-6h4v2h4v-2s0-3-3-3h-6s-3 0-3 3v7H5v-6H3v6c0 2 2 2 2 2h2v1c0 3 3 3 3 3h6c3 0 3-3 3-3"/><path style="fill:#f4f4f7" d="M19 10h-4v2h2l-4 5-4-5h2V6h4v2h4V6s0-3-3-3h-6S7 3 7 6v7H5V7H3v6c0 2 2 2 2 2h2v1c0 3 3 3 3 3h6c3 0 3-3 3-3"/><path style="opacity:.2;fill:#f4f4f7" d="M2 1c-.554 0-1 .446-1 1v.5c0-.554.446-1 1-1h18c.554 0 1 .446 1 1V2c0-.554-.446-1-1-1z"/></svg>

<svg xmlns="http://www.w3.org/2000/svg" width="22" height="22" version="1">
 <rect style="opacity:0.2" width="20" height="20" x="1" y="1.5" rx="1" ry="1"/>
 <rect style="fill:#72a637" width="20" height="20" x="1" y="1" rx="1" ry="1"/>
 <path style="opacity:0.2" d="m 19,10.5 h -4 v 2 h 2 l -4,5 -4,-5 h 2 v -6 h 4 v 2 h 4 v -2 c 0,0 0,-3 -3,-3 h -6 c 0,0 -3,0 -3,3 v 1 6 H 5 v -6 H 3 v 6 c 0,2 2,2 2,2 h 2 v 1 c 0,3 3,3 3,3 h 6 c 3,0 3,-3 3,-3"/>
 <path style="fill:#f4f4f7" d="M 19,10 H 15 V 12 H 17 L 13,17 9,12 H 11 V 6 H 15 V 8 H 19 V 6 C 19,6 19,3 16,3 H 10 C 10,3 7,3 7,6 V 7 13 H 5 V 7 H 3 V 13 C 3,15 5,15 5,15 H 7 V 16 C 7,19 10,19 10,19 H 16 C 19,19 19,16 19,16"/>
 <path style="opacity:0.2;fill:#f4f4f7" d="M 2,1 C 1.446,1 1,1.446 1,2 V 2.5 C 1,1.946 1.446,1.5 2,1.5 H 20 C 20.554,1.5 21,1.946 21,2.5 V 2 C 21,1.446 20.554,1 20,1 Z"/>
</svg>
